src/assets/clients/extenseit.svg

<svg width="361" height="60" viewBox="0 0 361 60" fill="none" xmlns="http://www.w3.org/2000/svg">
<g clip-path="url(#clip0_1_433)">
<mask id="mask0_1_433" style="mask-type:luminance" maskUnits="userSpaceOnUse" x="0" y="0" width="361" height="60">
<path d="M0.853516 0.981201H360.854V59.9812H0.853516V0.981201Z" fill="white"/>
</mask>
<g mask="url(#mask0_1_433)">
<path d="M12.0455 59.1443C10.5746 59.144 9.11814 58.853 7.75999 58.2881C6.40184 57.7231 5.16873 56.8953 4.13152 55.8523C2.03092 53.7414 0.852239 50.8842 0.853517 47.9063V13.1013C0.853517 10.1213 2.03252 7.26228 4.13152 5.15428C5.16899 4.11174 6.4022 3.28441 7.76032 2.71982C9.11844 2.15522 10.5747 1.86448 12.0455 1.86428H39.2155C39.2155 4.61628 38.1265 7.25628 36.1875 9.20328C35.2297 10.1664 34.091 10.9308 32.8369 11.4525C31.5827 11.9742 30.2378 12.243 28.8795 12.2433H12.7215V25.2373H32.5165C33.8865 25.2373 35.2005 25.7833 36.1695 26.7573C37.1392 27.7318 37.6835 29.0506 37.6835 30.4253V30.4293C37.6835 31.804 37.1392 33.1228 36.1695 34.0973C35.6907 34.5787 35.1215 34.9608 34.4946 35.2216C33.8677 35.4825 33.1955 35.6169 32.5165 35.6173H12.7215V48.7643H28.8795C30.2378 48.7646 31.5827 49.0333 32.8369 49.555C34.091 50.0767 35.2297 50.8411 36.1875 51.8043C38.1275 53.7539 39.216 56.3929 39.2145 59.1433H12.0445L12.0455 59.1443ZM41.8175 59.1443L56.4435 38.0773L41.7415 17.1643H47.6055C52.2715 17.1643 56.6355 19.4843 59.2555 23.3593L66.0905 33.4643H60.2735C60.2735 33.4643 63.7975 28.2523 66.8625 23.7243C68.225 21.7056 70.0618 20.052 72.212 18.9083C74.3622 17.7646 76.7601 17.1657 79.1955 17.1643H84.6215L69.9195 38.0773L84.4675 59.1443H78.7675C76.444 59.1427 74.1571 58.5656 72.1111 57.4645C70.0651 56.3634 68.3237 54.7726 67.0425 52.8343L60.4255 42.8443H65.9375L59.5665 52.4643C58.2099 54.5166 56.366 56.2008 54.1996 57.3665C52.0331 58.5321 49.6116 59.1429 47.1515 59.1443H41.8175ZM109.813 59.1443C104.76 59.1443 100.842 57.7733 98.0595 55.0313C95.2775 52.2883 93.8855 48.4563 93.8855 43.5363V26.6973H86.8415V16.7023H87.2245C89.3685 16.7023 91.0145 16.1643 92.1625 15.0883C93.3125 14.0113 93.8855 12.3963 93.8855 10.2443V7.16828H105.372V16.7023H115.173V21.0783C115.173 22.5683 114.583 23.9983 113.534 25.0523C113.015 25.5735 112.398 25.9872 111.719 26.2695C111.04 26.5518 110.312 26.6972 109.577 26.6973H105.372V42.7673C105.372 44.2023 105.627 45.3943 106.137 46.3433C106.648 47.2903 107.439 47.9953 108.511 48.4563C109.583 48.9183 110.91 49.1483 112.493 49.1483C112.85 49.1483 113.259 49.1233 113.718 49.0713C114.178 49.0203 114.663 48.9693 115.173 48.9183V58.6833C114.407 58.7853 113.54 58.8873 112.57 58.9903C111.6 59.0923 110.681 59.1443 109.813 59.1443ZM142.049 59.1443C137.607 59.1443 133.754 58.1583 130.487 56.1843C127.22 54.2103 124.693 51.5583 122.906 48.2263C121.12 44.8943 120.227 41.2043 120.227 37.1543C120.227 32.9503 121.158 29.2093 123.021 25.9283C124.884 22.6483 127.399 20.0593 130.563 18.1633C133.728 16.2673 137.301 15.3183 141.283 15.3183C144.601 15.3183 147.536 15.8433 150.089 16.8943C152.641 17.9443 154.798 19.4193 156.559 21.3153C158.323 23.2172 159.689 25.4527 160.578 27.8903C161.498 30.3753 161.957 33.0793 161.957 36.0003C161.957 36.8213 161.919 37.6283 161.842 38.4223C161.766 39.2183 161.625 39.8973 161.421 40.4603H130.104V32.0033H154.913L149.476 36.0013C149.986 33.7973 149.961 31.8363 149.4 30.1183C148.838 28.4023 147.855 27.0433 146.452 26.0443C145.048 25.0443 143.325 24.5443 141.283 24.5443C139.293 24.5443 137.582 25.0313 136.153 26.0053C134.724 26.9793 133.652 28.4153 132.937 30.3113C132.222 32.2083 131.942 34.5143 132.094 37.2313C131.89 39.5893 132.171 41.6653 132.937 43.4593C133.702 45.2533 134.877 46.6493 136.459 47.6493C138.042 48.6493 139.956 49.1493 142.202 49.1493C144.244 49.1493 145.992 48.7393 147.447 47.9193C147.8 47.7193 148.135 47.5013 148.451 47.2663C149.403 46.5699 150.526 46.1443 151.7 46.0346C152.875 45.925 154.057 46.1353 155.122 46.6433C156.77 47.384 158.41 48.1423 160.043 48.9183C159.226 50.9683 157.937 52.7623 156.176 54.3003C154.414 55.8383 152.335 57.0293 149.936 57.8763C147.536 58.7213 144.907 59.1443 142.049 59.1443ZM168.695 59.1443V17.1643H171.146C173.339 17.1643 175.443 18.0393 176.993 19.5943C178.545 21.1545 179.416 23.2663 179.415 25.4673L178.802 23.6223C179.772 21.1103 181.342 19.2523 183.511 18.0483C185.681 16.8443 188.221 16.2403 191.13 16.2403C194.295 16.2403 197.064 16.9073 199.438 18.2403C201.776 19.5381 203.7 21.4703 204.989 23.8143C206.316 26.1973 206.98 28.9793 206.98 32.1563V59.1443H195.495V34.6173C195.495 32.9773 195.176 31.5673 194.538 30.3883C193.921 29.2323 192.992 28.273 191.857 27.6203C190.709 26.9543 189.369 26.6203 187.838 26.6203C186.358 26.6203 185.03 26.9543 183.856 27.6203C182.703 28.264 181.76 29.2247 181.138 30.3883C180.5 31.5683 180.181 32.9773 180.181 34.6173V59.1443H168.695ZM230.946 59.1443C226.352 59.1443 222.358 58.0543 218.964 55.8763C215.569 53.6983 213.259 50.7633 212.034 47.0723L213.195 46.5223C214.953 45.6876 216.911 45.3673 218.844 45.5982C220.776 45.8291 222.604 46.6019 224.117 47.8273C224.337 48.0283 224.575 48.2083 224.821 48.3803C226.611 49.6464 228.753 50.3186 230.946 50.3023C232.58 50.3023 233.831 49.9693 234.698 49.3023C235.567 48.6363 236 47.7143 236 46.5353C236 45.9193 235.847 45.3943 235.541 44.9583C235.235 44.5223 234.775 44.1253 234.162 43.7663C233.55 43.4083 232.785 43.1003 231.865 42.8443L224.744 40.8443C221.324 39.8703 218.695 38.2943 216.858 36.1163C215.02 33.9383 214.101 31.3623 214.101 28.3893C214.101 25.7753 214.765 23.4943 216.092 21.5463C217.419 19.5983 219.283 18.0733 221.681 16.9713C224.081 15.8703 226.837 15.3183 229.951 15.3183C234.035 15.3183 237.621 16.2783 240.709 18.2013C243.797 20.1233 245.98 22.8283 247.256 26.3123L245.753 27.0203C244.133 27.7821 242.344 28.1095 240.56 27.9705C238.775 27.8315 237.058 27.2307 235.577 26.2273C235.528 26.1897 235.477 26.1543 235.426 26.1213C233.818 25.0703 231.993 24.5443 229.951 24.5443C228.471 24.5443 227.31 24.8533 226.467 25.4673C225.625 26.0823 225.204 26.9273 225.204 28.0053C225.204 28.5693 225.357 29.0813 225.663 29.5423C225.97 30.0033 226.467 30.4143 227.156 30.7723C227.845 31.1313 228.701 31.4643 229.722 31.7723L236.383 33.7713C239.854 34.7963 242.508 36.3473 244.347 38.4223C246.184 40.4993 247.102 43.0493 247.102 46.0723C247.102 48.6883 246.426 50.9683 245.074 52.9163C243.721 54.8643 241.845 56.3883 239.446 57.4913C237.047 58.5933 234.213 59.1443 230.946 59.1443ZM274.132 59.1443C269.691 59.1443 265.836 58.1583 262.57 56.1843C259.303 54.2103 256.776 51.5583 254.99 48.2263C253.203 44.8943 252.309 41.2043 252.309 37.1543C252.309 32.9503 253.241 29.2093 255.104 25.9283C256.968 22.6483 259.481 20.0593 262.647 18.1633C265.811 16.2673 269.384 15.3183 273.367 15.3183C276.684 15.3183 279.619 15.8433 282.172 16.8943C284.724 17.9443 286.881 19.4193 288.642 21.3153C290.403 23.2123 291.743 25.4033 292.662 27.8903C293.581 30.3753 294.04 33.0793 294.04 36.0003C294.04 36.8213 294.002 37.6283 293.925 38.4223C293.848 39.2183 293.708 39.8973 293.504 40.4603H262.187V32.0033H286.995L281.559 36.0013C282.07 33.7973 282.044 31.8363 281.482 30.1183C280.921 28.4023 279.939 27.0433 278.534 26.0443C277.131 25.0443 275.408 24.5443 273.367 24.5443C271.375 24.5443 269.665 25.0313 268.236 26.0053C266.806 26.9793 265.735 28.4153 265.02 30.3113C264.305 32.2083 264.024 34.5143 264.178 37.2313C263.974 39.5893 264.255 41.6653 265.02 43.4593C265.786 45.2533 266.96 46.6493 268.542 47.6493C270.125 48.6493 272.039 49.1493 274.285 49.1493C276.327 49.1493 278.075 48.7393 279.53 47.9193C279.884 47.7193 280.219 47.5013 280.535 47.2663C281.487 46.57 282.609 46.1445 283.784 46.0348C284.958 45.9251 286.14 46.1354 287.205 46.6433C288.853 47.384 290.493 48.1423 292.126 48.9183C291.309 50.9683 290.02 52.7623 288.259 54.3003C286.498 55.8383 284.417 57.0293 282.019 57.8763C279.619 58.7213 276.991 59.1443 274.132 59.1443ZM313.489 1.86328H301.621V59.1433H313.489V1.86328ZM333.857 59.1443V14.1153C333.857 13.6197 333.661 13.144 333.312 12.7928C332.962 12.4416 332.487 12.2436 331.992 12.2423H319.385V1.86328H359.967V12.2433H347.59C347.096 12.2433 346.621 12.4403 346.271 12.7913C345.921 13.1433 345.725 13.6192 345.725 14.1153V59.1443H333.857Z" fill="#2F84FF"/>
</g>
</g>
<defs>
<clipPath id="clip0_1_433">
<rect width="360" height="59" fill="white" transform="translate(0.853516 0.981201)"/>
</clipPath>
</defs>
</svg>

<svg xmlns="http://www.w3.org/2000/svg" fill="none" viewBox="0 0 361 60"><g clip-path="url(#a)"><mask id="b" width="361" height="60" x="0" y="0" maskUnits="userSpaceOnUse" style="mask-type:luminance"><path fill="#fff" d="M.854.981h360v59h-360v-59Z"/></mask><g mask="url(#b)"><path fill="#2F84FF" d="M12.046 59.144a11.165 11.165 0 0 1-7.914-3.292 11.258 11.258 0 0 1-3.278-7.946V13.101c0-2.98 1.179-5.839 3.278-7.947a11.167 11.167 0 0 1 7.914-3.29h27.17a10.4 10.4 0 0 1-3.029 7.34 10.31 10.31 0 0 1-7.307 3.04H12.72v12.993h19.796c1.37 0 2.683.546 3.652 1.52a5.2 5.2 0 0 1 1.515 3.668v.004a5.2 5.2 0 0 1-1.514 3.668 5.155 5.155 0 0 1-3.654 1.52H12.723v13.147h16.157a10.31 10.31 0 0 1 7.308 3.04 10.397 10.397 0 0 1 3.028 7.34h-27.17Zm29.772 0 14.626-21.067L41.74 17.164h5.864c4.667 0 9.03 2.32 11.65 6.195l6.836 10.105h-5.817s3.523-5.212 6.588-9.74a14.89 14.89 0 0 1 12.334-6.56h5.425L69.92 38.077l14.547 21.067h-5.7a14.066 14.066 0 0 1-11.724-6.31l-6.618-9.99h5.513l-6.372 9.62a14.892 14.892 0 0 1-12.415 6.68h-5.334Zm67.995 0c-5.053 0-8.971-1.37-11.754-4.113-2.781-2.743-4.174-6.575-4.174-11.495V26.697h-7.044v-9.995h.384c2.144 0 3.79-.538 4.938-1.614 1.15-1.077 1.722-2.692 1.722-4.844V7.168h11.487v9.534h9.801v4.376c0 1.49-.59 2.92-1.639 3.974a5.59 5.59 0 0 1-3.957 1.645h-4.205v16.07c0 1.435.255 2.627.765 3.576.511.947 1.302 1.652 2.374 2.113 1.072.462 2.399.692 3.982.692a11 11 0 0 0 1.225-.077c.46-.05.945-.102 1.455-.153v9.765a99.66 99.66 0 0 1-2.603.307c-.97.102-1.889.154-2.757.154Zm32.236 0c-4.442 0-8.295-.986-11.562-2.96-3.267-1.974-5.794-4.626-7.581-7.958-1.786-3.332-2.679-7.022-2.679-11.072 0-4.204.931-7.945 2.794-11.226 1.863-3.28 4.378-5.869 7.542-7.765 3.165-1.896 6.738-2.845 10.72-2.845 3.318 0 6.253.525 8.806 1.576 2.552 1.05 4.709 2.525 6.47 4.421a19.486 19.486 0 0 1 4.019 6.575c.92 2.485 1.379 5.19 1.379 8.11 0 .821-.038 1.628-.115 2.422-.076.796-.217 1.475-.421 2.038h-31.317v-8.457h24.809l-5.437 3.998c.51-2.204.485-4.165-.076-5.883-.562-1.716-1.545-3.075-2.948-4.074-1.404-1-3.127-1.5-5.169-1.5-1.99 0-3.701.487-5.13 1.461-1.429.974-2.501 2.41-3.216 4.306-.715 1.897-.995 4.203-.843 6.92-.204 2.358.077 4.434.843 6.228.765 1.794 1.94 3.19 3.522 4.19 1.583 1 3.497 1.5 5.743 1.5 2.042 0 3.79-.41 5.245-1.23.353-.2.688-.418 1.004-.653a6.533 6.533 0 0 1 6.671-.623 255.57 255.57 0 0 1 4.921 2.275c-.817 2.05-2.106 3.844-3.867 5.382-1.762 1.538-3.841 2.73-6.24 3.576-2.4.845-5.029 1.268-7.887 1.268Zm26.646 0v-41.98h2.451c2.193 0 4.297.875 5.847 2.43a8.323 8.323 0 0 1 2.422 5.873l-.613-1.845c.97-2.512 2.54-4.37 4.709-5.574 2.17-1.204 4.71-1.808 7.619-1.808 3.165 0 5.934.667 8.308 2a14.201 14.201 0 0 1 5.551 5.574c1.327 2.383 1.991 5.165 1.991 8.342v26.988h-11.485V34.617c0-1.64-.319-3.05-.957-4.229a6.989 6.989 0 0 0-2.681-2.768c-1.148-.666-2.488-1-4.019-1-1.48 0-2.808.334-3.982 1a6.89 6.89 0 0 0-2.718 2.768c-.638 1.18-.957 2.59-.957 4.23v24.526h-11.486Zm62.251 0c-4.594 0-8.588-1.09-11.982-3.268-3.395-2.178-5.705-5.113-6.93-8.804l1.161-.55a10.316 10.316 0 0 1 10.922 1.305c.22.201.458.381.704.553a10.47 10.47 0 0 0 6.125 1.922c1.634 0 2.885-.333 3.752-1 .869-.666 1.302-1.588 1.302-2.767 0-.616-.153-1.14-.459-1.577-.306-.436-.766-.833-1.379-1.192-.612-.358-1.377-.666-2.297-.922l-7.121-2c-3.42-.974-6.049-2.55-7.886-4.728-1.838-2.178-2.757-4.754-2.757-7.727 0-2.614.664-4.895 1.991-6.843 1.327-1.948 3.191-3.473 5.589-4.575 2.4-1.1 5.156-1.653 8.27-1.653 4.084 0 7.67.96 10.758 2.883 3.088 1.922 5.271 4.627 6.547 8.111l-1.503.708a10.318 10.318 0 0 1-10.176-.793 2.31 2.31 0 0 0-.151-.106c-1.608-1.05-3.433-1.577-5.475-1.577-1.48 0-2.641.31-3.484.923-.842.615-1.263 1.46-1.263 2.538 0 .564.153 1.076.459 1.537.307.461.804.872 1.493 1.23.689.36 1.545.692 2.566 1l6.661 2c3.471 1.024 6.125 2.575 7.964 4.65 1.837 2.077 2.755 4.627 2.755 7.65 0 2.616-.676 4.896-2.028 6.844-1.353 1.948-3.229 3.472-5.628 4.575-2.399 1.102-5.233 1.653-8.5 1.653Zm43.186 0c-4.441 0-8.296-.986-11.562-2.96-3.267-1.974-5.794-4.626-7.58-7.958-1.787-3.332-2.681-7.022-2.681-11.072 0-4.204.932-7.945 2.795-11.226 1.864-3.28 4.377-5.869 7.543-7.765 3.164-1.896 6.737-2.845 10.72-2.845 3.317 0 6.252.525 8.805 1.576 2.552 1.05 4.709 2.525 6.47 4.421a19.484 19.484 0 0 1 4.02 6.575c.919 2.485 1.378 5.19 1.378 8.11 0 .821-.038 1.628-.115 2.422-.077.796-.217 1.475-.421 2.038h-31.317v-8.457h24.808l-5.436 3.998c.511-2.204.485-4.165-.077-5.883-.561-1.716-1.543-3.075-2.948-4.074-1.403-1-3.126-1.5-5.167-1.5-1.992 0-3.702.487-5.131 1.461-1.43.974-2.501 2.41-3.216 4.306-.715 1.897-.996 4.203-.842 6.92-.204 2.358.077 4.434.842 6.228.766 1.794 1.94 3.19 3.522 4.19 1.583 1 3.497 1.5 5.743 1.5 2.042 0 3.79-.41 5.245-1.23.354-.2.689-.418 1.005-.653a6.53 6.53 0 0 1 6.67-.623 255.57 255.57 0 0 1 4.921 2.275c-.817 2.05-2.106 3.844-3.867 5.382-1.761 1.538-3.842 2.73-6.24 3.576-2.4.845-5.028 1.268-7.887 1.268Zm39.357-57.28h-11.868v57.28h11.868V1.863Zm20.368 57.28V14.115a1.871 1.871 0 0 0-1.865-1.873h-12.607V1.863h40.582v10.38H347.59a1.864 1.864 0 0 0-1.865 1.872v45.03h-11.868Z"/></g></g><defs><clipPath id="a"><path fill="#fff" d="M.854.981h360v59h-360z"/></clipPath></defs></svg>
